src/main/resources/icons/AllIcons/actions/showCode.svg

<!-- Copyright 2000-2021 JetBrains s.r.o. Use of this source code is governed by the Apache 2.0 license that can be found in the LICENSE file. -->
<svg xmlns="http://www.w3.org/2000/svg" width="16" height="16" viewBox="0 0 16 16">
  <g fill="none" fill-rule="evenodd">
    <path fill="#6E6E6E" fill-rule="nonzero" d="M4.98791895,12.3413874 C3.17156786,11.5070291 1.7302217,9.94122795 1,8 C2.10090909,5.07333333 4.81818182,3 8,3 C11.1818182,3 13.8990909,5.07333333 15,8 C14.7672185,8.61882856 14.462171,9.19950551 14.0957464,9.73049762 L13,9 L11.3548737,9 C11.4492905,8.68310674 11.5,8.3474393 11.5,8 C11.5,6.068 9.932,4.5 8,4.5 C6.068,4.5 4.5,6.068 4.5,8 C4.5,9.45482225 5.3891022,10.7032458 6.65322161,11.2311856 L4.98791895,12.3413874 Z M9.48048042,9.34634639 L8.67364033,9.88423978 C8.46326127,9.95920094 8.23650216,10 8,10 C6.89333333,10 6,9.10666667 6,8 C6,6.89333333 6.89333333,6 8,6 C9.10666667,6 10,6.89333333 10,8 C10,8.51911994 9.80343088,8.991298 9.48048042,9.34634639 Z"/>
    <g fill="#6E6E6E" transform="translate(7 10)">
      <polygon points="0 3.6 0 2.4 4 0 4 1.2 1.067 3 4 4.8 4 6"/>
      <polygon points="0 4.8 2.933 3 0 1.2 0 0 4 2.4 4 3.6 0 6" transform="translate(5)"/>
    </g>
  </g>
</svg>

<svg xmlns="http://www.w3.org/2000/svg" width="16" height="16" viewBox="0 0 16 16"><rect id="frame" width="16" height="16" fill="none"/><g fill="#6E6E6E" fill-rule="evenodd"><path fill-rule="nonzero" d="M4.988 12.341C3.172 11.507 1.73 9.941 1 8c1.1-2.927 3.818-5 7-5s5.9 2.073 7 5a8.015 8.015 0 0 1-.904 1.73L13 9h-1.645A3.501 3.501 0 0 0 8 4.5a3.501 3.501 0 0 0-1.347 6.731l-1.665 1.11zM9.48 9.346l-.806.538A2.003 2.003 0 0 1 6 8c0-1.107.893-2 2-2s2 .893 2 2c0 .52-.197.991-.52 1.346z"/><path d="M7 13.6v-1.2l4-2.4v1.2L8.067 13 11 14.8V16z"/><path d="M12 14.8l2.933-1.8L12 11.2V10l4 2.4v1.2L12 16z"/></g></svg>
